public/img/decorations/deco-blob-3.svg

<svg width="181" height="248" viewBox="0 0 181 248" fill="none" xmlns="http://www.w3.org/2000/svg">
<path d="M173.496 137.406C174.74 140.125 174.201 142.961 172.992 145.955C171.785 148.945 171.244 152.203 170.371 155.332C169.545 158.285 169.023 161.391 167.74 164.135C164.455 171.167 160.851 178.053 157.302 184.959C156.15 187.203 154.769 189.328 153.507 191.517C150.778 196.252 146.98 200.155 143.411 204.207C139.247 208.934 134.907 213.528 130.36 217.884C126.981 221.119 123.356 224.19 119.477 226.79C110.78 232.623 101.875 238.142 91.7499 241.311C88.3119 242.386 84.9839 243.811 81.5509 244.904C73.1449 247.579 64.4319 248.129 55.8069 247.077C43.0409 245.519 34.2129 238.431 30.1099 226.075C28.8639 222.324 28.1059 218.372 27.5139 214.454C26.8169 209.821 26.5859 205.12 26.0709 200.456C25.3349 193.802 24.3459 187.22 21.4659 181.048C18.4739 174.631 16.5169 167.857 15.4639 160.864C14.0029 151.18 11.2059 141.854 8.4269 132.5C6.2689 125.236 4.1689 117.936 3.2239 110.374C3.0229 108.764 2.7159 107.161 2.3649 105.576C1.5039 101.679 1.03089 97.749 1.08989 93.75C1.11089 92.31 1.1309 90.823 0.8169 89.433C-0.1261 85.264 0.427893 81.211 1.17589 77.083C2.60189 69.223 4.9509 61.659 7.8319 54.234C11.6759 44.329 17.4339 35.662 24.7729 28.024C27.4019 25.289 30.1459 22.662 32.7379 19.892C41.5149 10.511 52.7829 5.93202 64.9919 3.34302C76.9139 0.815015 89.0599 0.543025 101.144 1.31003C118.3 2.39903 134.746 6.51404 149.367 15.95C158.662 21.948 165.805 29.942 169.615 40.639C172.851 49.726 174.459 59.13 175.758 68.625C176.248 72.201 176.719 75.792 177.459 79.32C179.471 88.912 180.406 98.573 180.119 108.383C179.885 116.393 178.273 124.157 176.322 131.861C175.854 133.709 174.568 135.353 173.496 137.406ZM114.193 74.056C116.129 74.66 116.129 74.66 116.709 73.132C115.756 73.482 114.975 73.769 114.193 74.056Z" fill="black"/>
</svg>

<svg width="181" height="248" fill="none" xmlns="http://www.w3.org/2000/svg"><path d="M173.496 137.406c1.244 2.719.705 5.555-.504 8.549-1.207 2.99-1.748 6.248-2.621 9.377-.826 2.953-1.348 6.059-2.631 8.803-3.285 7.032-6.889 13.918-10.438 20.824-1.152 2.244-2.533 4.369-3.795 6.558-2.729 4.735-6.527 8.638-10.096 12.69-4.164 4.727-8.504 9.321-13.051 13.677-3.379 3.235-7.004 6.306-10.883 8.906-8.697 5.833-17.602 11.352-27.727 14.521-3.438 1.075-6.766 2.5-10.2 3.593-8.405 2.675-17.118 3.225-25.743 2.173-12.766-1.558-21.594-8.646-25.697-21.002-1.246-3.751-2.004-7.703-2.596-11.621-.697-4.633-.928-9.334-1.443-13.998-.736-6.654-1.725-13.236-4.605-19.408-2.992-6.417-4.95-13.191-6.002-20.184-1.461-9.684-4.258-19.01-7.037-28.364-2.158-7.264-4.258-14.564-5.203-22.126-.201-1.61-.508-3.213-.86-4.798-.86-3.897-1.333-7.827-1.274-11.826.02-1.44.04-2.927-.273-4.317-.943-4.169-.39-8.222.359-12.35 1.426-7.86 3.775-15.424 6.656-22.849 3.844-9.905 9.602-18.572 16.94-26.21 2.63-2.735 5.374-5.362 7.966-8.132 8.777-9.381 20.045-13.96 32.254-16.549C76.914.815 89.06.543 101.144 1.31c17.156 1.089 33.602 5.204 48.223 14.64 9.295 5.998 16.438 13.992 20.248 24.689 3.236 9.087 4.844 18.491 6.143 27.986.49 3.576.961 7.167 1.701 10.695 2.012 9.592 2.947 19.253 2.66 29.063-.234 8.01-1.846 15.774-3.797 23.478-.468 1.848-1.754 3.492-2.826 5.545zm-59.303-63.35c1.936.604 1.936.604 2.516-.924l-2.516.924z" fill="#000"/></svg>
